src/bright/hiso font bright_w.svg

<svg xmlns="http://www.w3.org/2000/svg" width="90" height="126" viewBox="0 0 90 126"><path fill="#000101" d="M36 9v36l-36-18v72l36 18 14.399-28.8 21.601 10.8v-72l-36-18zm3 95.281v-30.781l12.319 6.16-12.319 24.621zm12.74-18.761l2.26-4.52 11.3 11.301-13.56-6.781zm17.26 6.241l-13.66-13.441-16.34-8.17v-56.3l30 15v62.911z"/></svg>

<svg xmlns="http://www.w3.org/2000/svg" width="90" height="126"><path fill="#000101" d="M36 9v36L0 27v72l36 18 14.399-28.8L72 99V27L36 9zm3 95.281V73.5l12.319 6.16L39 104.281zM51.74 85.52L54 81l11.3 11.301-13.56-6.781zM69 91.761L55.34 78.32 39 70.15v-56.3l30 15v62.911z"/></svg>
